X: 20302
T: John Brady's
R: polka
M: 2/4
K: Eminor
B,E EF|GA B>A|FA D>E|FE DB,|
E2 EF|GA Bd|eA BF|1 E2 E/F/E/D/:|2 E2 E2||
eB BA/B/|dB BA|FA DF|ED B,2|
eB BA/B/|de BA|FD EF|1 E2 E2:|2 E2 E>D||

